launcher/android/assets/skins/day/svg/solver-icon-2.svg

<svg enable-background="new 0 0 257.00 257.00" height="257" viewBox="0 0 257 257" width="257" xmlns="http://www.w3.org/2000/svg" xmlns:xlink="http://www.w3.org/1999/xlink"><linearGradient id="a" gradientTransform="matrix(0 -1 1 0 -.667303 1.667305)" gradientUnits="objectBoundingBox" x1=".500001" x2="1.44578" y1="1.1673" y2="1.1673"><stop offset="0" stop-color="#b4b9b4"/><stop offset=".0977598" stop-color="#7a7d7a"/><stop offset=".367442" stop-color="#404240"/><stop offset="1" stop-color="#b2b9b2"/></linearGradient><linearGradient id="b" gradientTransform="matrix(0 -1 1 0 -.693995 1.693997)" gradientUnits="objectBoundingBox" x1=".500001" x2="1.48361" y1="1.194" y2="1.194"><stop offset="0" stop-color="#f4f4f4"/><stop offset=".0977598" stop-color="#afb2af"/><stop offset=".367442" stop-color="#6b706b"/><stop offset="1" stop-color="#dde7dd"/></linearGradient><linearGradient id="c"><stop offset="0" stop-color="#646564"/><stop offset=".0977598" stop-color="#3a3b3a"/><stop offset=".367442" stop-color="#111"/><stop offset="1" stop-color="#3b3b3b"/></linearGradient><linearGradient id="d" gradientTransform="matrix(0 -1 1 0 -.683748 1.683748)" gradientUnits="objectBoundingBox" x1=".5" x2="1.46907" xlink:href="#c" y1="1.18375" y2="1.18375"/><linearGradient id="e" gradientTransform="matrix(0 -1 1 0 -.694004 1.694004)" gradientUnits="objectBoundingBox" x1=".5" x2="1.48361" xlink:href="#c" y1="1.194" y2="1.194"/><linearGradient id="f"><stop offset="0" stop-color="#8c9d8c"/><stop offset=".0977598" stop-color="#87a087"/><stop offset=".367442" stop-color="#83a483"/><stop offset="1" stop-color="#90b290"/></linearGradient><linearGradient id="g" gradientTransform="matrix(0 -1 1 0 -.671616 1.671616)" gradientUnits="objectBoundingBox" x1=".5" x2="1.45189" xlink:href="#f" y1="1.17162" y2="1.17162"/><linearGradient id="h"><stop offset="0" stop-color="#8ca48c"/><stop offset=".0977598" stop-color="#617661"/><stop offset=".367442" stop-color="#364936"/><stop offset="1" stop-color="#719671"/></linearGradient><linearGradient id="i" gradientTransform="matrix(0 -1 1 0 -.694004 1.694004)" gradientUnits="objectBoundingBox" x1=".5" x2="1.48362" xlink:href="#h" y1="1.194" y2="1.194"/><linearGradient id="j" gradientTransform="matrix(0 -1 1 0 -.671618 1.67162)" gradientUnits="objectBoundingBox" x1=".500001" x2="1.45189" xlink:href="#f" y1="1.17162" y2="1.17162"/><linearGradient id="k" gradientTransform="matrix(0 -1 1 0 -.694006 1.694008)" gradientUnits="objectBoundingBox" x1=".500001" x2="1.48362" xlink:href="#h" y1="1.19401" y2="1.19401"/><linearGradient id="l" gradientTransform="matrix(0 -1 1 0 -.671615 1.671617)" gradientUnits="objectBoundingBox" x1=".500001" x2="1.45188" xlink:href="#f" y1="1.17162" y2="1.17162"/><linearGradient id="m" gradientTransform="matrix(0 -1 1 0 -.694002 1.694004)" gradientUnits="objectBoundingBox" x1=".500001" x2="1.48361" xlink:href="#h" y1="1.194" y2="1.194"/><linearGradient id="n" gradientTransform="matrix(0 -1 1 0 -.671615 1.671617)" gradientUnits="objectBoundingBox" x1=".500001" x2="1.45188" y1="1.17162" y2="1.17162"><stop offset=".0232558" stop-color="#f8856e"/><stop offset=".114828" stop-color="#f86043"/><stop offset=".367442" stop-color="#f83c19"/><stop offset="1" stop-color="#ff7a5f"/></linearGradient><linearGradient id="o" gradientTransform="matrix(0 -1 1 0 -.694002 1.694004)" gradientUnits="objectBoundingBox" x1=".500001" x2="1.48361" y1="1.194" y2="1.194"><stop offset="0" stop-color="#d58878"/><stop offset=".0977598" stop-color="#c35e4a"/><stop offset=".367442" stop-color="#b2341c"/><stop offset="1" stop-color="#c07a6c"/></linearGradient><g stroke-linejoin="round"><path d="m42.0012 17.6717h170.9998c14.912 0 27 12.0881 27 27v170.9993c0 14.913-12.088 27.001-27 27.001h-170.9998c-14.9116 0-27-12.088-27-27.001v-170.9993c0-14.9119 12.0884-27 27-27z" fill="url(#b)" stroke="url(#a)" stroke-width="9"/><g stroke-width="3"><path d="m42.4601 29.0413h169.9999c8.285 0 15 6.7163 15 15v169.9997c0 8.284-6.715 15-15 15h-169.9999c-8.2843 0-15-6.716-15-15v-169.9997c0-8.2837 6.7157-15 15-15z" fill="url(#e)" stroke="url(#d)"/><path d="m46.9602 34.0428h59.9998c8.284 0 15 6.7158 15 15v59.9992c0 8.284-6.716 15-15 15h-59.9998c-8.2842 0-15-6.716-15-15v-59.9992c0-8.2842 6.7158-15 15-15z" fill="url(#i)" stroke="url(#g)"/><path d="m146.96 33.543h60c8.284 0 15 6.7159 15 15v60c0 8.284-6.716 14.999-15 14.999h-60c-8.284 0-15-6.715-15-14.999v-60c0-8.2841 6.716-15 15-15z" fill="url(#k)" stroke="url(#j)"/><path d="m46.9602 133.542h59.9998c8.284 0 15 6.716 15 15v60c0 8.284-6.716 15-15 15h-59.9998c-8.2843 0-15-6.716-15-15v-60c0-8.284 6.7157-15 15-15z" fill="url(#m)" stroke="url(#l)"/><path d="m146.96 132.542h60c8.284 0 15 6.716 15 15v60c0 8.284-6.716 15-15 15h-60c-8.284 0-15-6.716-15-15v-60c0-8.284 6.716-15 15-15z" fill="url(#o)" stroke="url(#n)"/></g><path d="m69.8269 101.942v-20.1599h-19.395v-8.6402h19.395v-19.1997h8.64v19.1997h19.59v8.6402h-19.59v20.1599z" fill="#fff" stroke="#000"/><path d="m160.589 74.2821h26.8799v11.52h-26.8799z" fill="#fff" stroke="#000"/><path d="m84.7219 194.797-7.9649 4.365-4.8-9.45-4.8 9.45-7.98-4.365 5.58-10.995h-12.105v-8.64h11.805l-5.37-11.28 7.875-4.08 4.995 10.035 5.085-10.035 7.965 4.275-5.67 11.085h11.715v8.64h-11.895z" fill="#fff" stroke="#000"/><path d="m152.282 192.042v-8.64h47.715v8.64zm0-19.2v-8.64h47.715v8.64z" fill="#fff" stroke="#000"/><path d="m217.11 126.105c8.966 0 15.662 2.349 20.087 7.05 4.425 4.7 6.638 10.791 6.638 18.275 0 5.45-1.359 10.337-4.075 14.662-2.717 4.325-7.275 7.88-13.675 10.663l-60.475 26.449c-1.817.851-3.313 1.972-4.488 3.363-1.175 1.392-1.762 2.996-1.762 4.813v5.925h81.75v19.2h-101.1v-25.375c0-1.717.212-3.696.637-5.938.425-2.241 1.275-4.512 2.55-6.812 1.275-2.301 3.088-4.575 5.438-6.825s5.391-4.184 9.125-5.8l60.8-26.475c2.033-.867 3.554-2.076 4.562-3.625 1.008-1.55 1.513-3.076 1.513-4.576 0-1.716-.48-3.107-1.438-4.174s-2.821-1.6-5.587-1.6h-73.45v-19.2z" fill="#32e01d" stroke="#000" stroke-width="2"/></g></svg>

﻿<?xml version="1.0" encoding="utf-8"?>
<!DOCTYPE svg PUBLIC "-//W3C//DTD SVG 1.1//EN" "http://www.w3.org/Graphics/SVG/1.1/DTD/svg11.dtd">
<svg xmlns="http://www.w3.org/2000/svg" xmlns:xlink="http://www.w3.org/1999/xlink" version="1.1" baseProfile="full" width="257" height="257" viewBox="0 0 257.00 257.00" enable-background="new 0 0 257.00 257.00" xml:space="preserve">
	<g>
		<linearGradient id="SVGID_Stroke1_" gradientUnits="objectBoundingBox" x1="0.500001" y1="1.1673" x2="1.44578" y2="1.1673" gradientTransform="rotate(-90.000000 0.500001 1.167304)">
			<stop offset="0" stop-color="#B4B9B4" stop-opacity="1"/>
			<stop offset="0.0977598" stop-color="#7A7D7A" stop-opacity="1"/>
			<stop offset="0.367442" stop-color="#404240" stop-opacity="1"/>
			<stop offset="1" stop-color="#B2B9B2" stop-opacity="1"/>
		</linearGradient>
		<linearGradient id="SVGID_Fill1_" gradientUnits="objectBoundingBox" x1="0.500001" y1="1.194" x2="1.48361" y2="1.194" gradientTransform="rotate(-90.000000 0.500001 1.193996)">
			<stop offset="0" stop-color="#F4F4F4" stop-opacity="1"/>
			<stop offset="0.0977598" stop-color="#AFB2AF" stop-opacity="1"/>
			<stop offset="0.367442" stop-color="#6B706B" stop-opacity="1"/>
			<stop offset="1" stop-color="#DDE7DD" stop-opacity="1"/>
		</linearGradient>
		<path fill="url(#SVGID_Fill1_)" stroke-width="9" stroke-linejoin="round" stroke="url(#SVGID_Stroke1_)" d="M 42.0012,17.6717L 213.001,17.6717C 227.913,17.6717 240.001,29.7598 240.001,44.6717L 240.001,215.671C 240.001,230.584 227.913,242.672 213.001,242.672L 42.0012,242.672C 27.0896,242.672 15.0012,230.584 15.0012,215.671L 15.0012,44.6717C 15.0012,29.7598 27.0896,17.6717 42.0012,17.6717 Z "/>
		<linearGradient id="SVGID_Stroke2_" gradientUnits="objectBoundingBox" x1="0.5" y1="1.18375" x2="1.46907" y2="1.18375" gradientTransform="rotate(-90.000000 0.500000 1.183748)">
			<stop offset="0" stop-color="#646564" stop-opacity="1"/>
			<stop offset="0.0977598" stop-color="#3A3B3A" stop-opacity="1"/>
			<stop offset="0.367442" stop-color="#111111" stop-opacity="1"/>
			<stop offset="1" stop-color="#3B3B3B" stop-opacity="1"/>
		</linearGradient>
		<linearGradient id="SVGID_Fill2_" gradientUnits="objectBoundingBox" x1="0.5" y1="1.194" x2="1.48361" y2="1.194" gradientTransform="rotate(-90.000000 0.500000 1.194004)">
			<stop offset="0" stop-color="#646564" stop-opacity="1"/>
			<stop offset="0.0977598" stop-color="#3A3B3A" stop-opacity="1"/>
			<stop offset="0.367442" stop-color="#111111" stop-opacity="1"/>
			<stop offset="1" stop-color="#3B3B3B" stop-opacity="1"/>
		</linearGradient>
		<path fill="url(#SVGID_Fill2_)" stroke-width="3" stroke-linejoin="round" stroke="url(#SVGID_Stroke2_)" d="M 42.4601,29.0413L 212.46,29.0413C 220.745,29.0413 227.46,35.7576 227.46,44.0413L 227.46,214.041C 227.46,222.325 220.745,229.041 212.46,229.041L 42.4601,229.041C 34.1758,229.041 27.4601,222.325 27.4601,214.041L 27.4601,44.0413C 27.4601,35.7576 34.1758,29.0413 42.4601,29.0413 Z "/>
		<linearGradient id="SVGID_Stroke3_" gradientUnits="objectBoundingBox" x1="0.5" y1="1.17162" x2="1.45189" y2="1.17162" gradientTransform="rotate(-90.000000 0.500000 1.171616)">
			<stop offset="0" stop-color="#8C9D8C" stop-opacity="1"/>
			<stop offset="0.0977598" stop-color="#87A087" stop-opacity="1"/>
			<stop offset="0.367442" stop-color="#83A483" stop-opacity="1"/>
			<stop offset="1" stop-color="#90B290" stop-opacity="1"/>
		</linearGradient>
		<linearGradient id="SVGID_Fill3_" gradientUnits="objectBoundingBox" x1="0.5" y1="1.194" x2="1.48362" y2="1.194" gradientTransform="rotate(-90.000000 0.500000 1.194004)">
			<stop offset="0" stop-color="#8CA48C" stop-opacity="1"/>
			<stop offset="0.0977598" stop-color="#617661" stop-opacity="1"/>
			<stop offset="0.367442" stop-color="#364936" stop-opacity="1"/>
			<stop offset="1" stop-color="#719671" stop-opacity="1"/>
		</linearGradient>
		<path fill="url(#SVGID_Fill3_)" stroke-width="3" stroke-linejoin="round" stroke="url(#SVGID_Stroke3_)" d="M 46.9602,34.0428L 106.96,34.0428C 115.244,34.0428 121.96,40.7586 121.96,49.0428L 121.96,109.042C 121.96,117.326 115.244,124.042 106.96,124.042L 46.9602,124.042C 38.676,124.042 31.9602,117.326 31.9602,109.042L 31.9602,49.0428C 31.9602,40.7586 38.676,34.0428 46.9602,34.0428 Z "/>
		<linearGradient id="SVGID_Stroke4_" gradientUnits="objectBoundingBox" x1="0.500001" y1="1.17162" x2="1.45189" y2="1.17162" gradientTransform="rotate(-90.000000 0.500001 1.171619)">
			<stop offset="0" stop-color="#8C9D8C" stop-opacity="1"/>
			<stop offset="0.0977598" stop-color="#87A087" stop-opacity="1"/>
			<stop offset="0.367442" stop-color="#83A483" stop-opacity="1"/>
			<stop offset="1" stop-color="#90B290" stop-opacity="1"/>
		</linearGradient>
		<linearGradient id="SVGID_Fill4_" gradientUnits="objectBoundingBox" x1="0.500001" y1="1.19401" x2="1.48362" y2="1.19401" gradientTransform="rotate(-90.000000 0.500001 1.194007)">
			<stop offset="0" stop-color="#8CA48C" stop-opacity="1"/>
			<stop offset="0.0977598" stop-color="#617661" stop-opacity="1"/>
			<stop offset="0.367442" stop-color="#364936" stop-opacity="1"/>
			<stop offset="1" stop-color="#719671" stop-opacity="1"/>
		</linearGradient>
		<path fill="url(#SVGID_Fill4_)" stroke-width="3" stroke-linejoin="round" stroke="url(#SVGID_Stroke4_)" d="M 146.96,33.543L 206.96,33.543C 215.244,33.543 221.96,40.2589 221.96,48.543L 221.96,108.543C 221.96,116.827 215.244,123.542 206.96,123.542L 146.96,123.542C 138.676,123.542 131.96,116.827 131.96,108.543L 131.96,48.543C 131.96,40.2589 138.676,33.543 146.96,33.543 Z "/>
		<linearGradient id="SVGID_Stroke5_" gradientUnits="objectBoundingBox" x1="0.500001" y1="1.17162" x2="1.45188" y2="1.17162" gradientTransform="rotate(-90.000000 0.500001 1.171616)">
			<stop offset="0" stop-color="#8C9D8C" stop-opacity="1"/>
			<stop offset="0.0977598" stop-color="#87A087" stop-opacity="1"/>
			<stop offset="0.367442" stop-color="#83A483" stop-opacity="1"/>
			<stop offset="1" stop-color="#90B290" stop-opacity="1"/>
		</linearGradient>
		<linearGradient id="SVGID_Fill5_" gradientUnits="objectBoundingBox" x1="0.500001" y1="1.194" x2="1.48361" y2="1.194" gradientTransform="rotate(-90.000000 0.500001 1.194003)">
			<stop offset="0" stop-color="#8CA48C" stop-opacity="1"/>
			<stop offset="0.0977598" stop-color="#617661" stop-opacity="1"/>
			<stop offset="0.367442" stop-color="#364936" stop-opacity="1"/>
			<stop offset="1" stop-color="#719671" stop-opacity="1"/>
		</linearGradient>
		<path fill="url(#SVGID_Fill5_)" stroke-width="3" stroke-linejoin="round" stroke="url(#SVGID_Stroke5_)" d="M 46.9602,133.542L 106.96,133.542C 115.244,133.542 121.96,140.258 121.96,148.542L 121.96,208.542C 121.96,216.826 115.244,223.542 106.96,223.542L 46.9602,223.542C 38.6759,223.542 31.9602,216.826 31.9602,208.542L 31.9602,148.542C 31.9602,140.258 38.6759,133.542 46.9602,133.542 Z "/>
		<linearGradient id="SVGID_Stroke6_" gradientUnits="objectBoundingBox" x1="0.500001" y1="1.17162" x2="1.45188" y2="1.17162" gradientTransform="rotate(-90.000000 0.500001 1.171616)">
			<stop offset="0.0232558" stop-color="#F8856E" stop-opacity="1"/>
			<stop offset="0.114828" stop-color="#F86043" stop-opacity="1"/>
			<stop offset="0.367442" stop-color="#F83C19" stop-opacity="1"/>
			<stop offset="1" stop-color="#FF7A5F" stop-opacity="1"/>
		</linearGradient>
		<linearGradient id="SVGID_Fill6_" gradientUnits="objectBoundingBox" x1="0.500001" y1="1.194" x2="1.48361" y2="1.194" gradientTransform="rotate(-90.000000 0.500001 1.194003)">
			<stop offset="0" stop-color="#D58878" stop-opacity="1"/>
			<stop offset="0.0977598" stop-color="#C35E4A" stop-opacity="1"/>
			<stop offset="0.367442" stop-color="#B2341C" stop-opacity="1"/>
			<stop offset="1" stop-color="#C07A6C" stop-opacity="1"/>
		</linearGradient>
		<path fill="url(#SVGID_Fill6_)" stroke-width="3" stroke-linejoin="round" stroke="url(#SVGID_Stroke6_)" d="M 146.96,132.542L 206.96,132.542C 215.244,132.542 221.96,139.258 221.96,147.542L 221.96,207.542C 221.96,215.826 215.244,222.542 206.96,222.542L 146.96,222.542C 138.676,222.542 131.96,215.826 131.96,207.542L 131.96,147.542C 131.96,139.258 138.676,132.542 146.96,132.542 Z "/>
		<g>
			<path fill="#FFFFFF" fill-opacity="1" stroke-linejoin="round" stroke="#000000" stroke-opacity="1" d="M 69.8269,101.942L 69.8269,81.7821L 50.4319,81.7821L 50.4319,73.1419L 69.8269,73.1419L 69.8269,53.9422L 78.4669,53.9422L 78.4669,73.1419L 98.0569,73.1419L 98.0569,81.7821L 78.4669,81.7821L 78.4669,101.942L 69.8269,101.942 Z "/>
		</g>
		<g>
			<rect x="160.589" y="74.2821" fill="#FFFFFF" fill-opacity="1" stroke-linejoin="round" stroke="#000000" stroke-opacity="1" width="26.8799" height="11.52"/>
		</g>
		<g>
			<path fill="#FFFFFF" fill-opacity="1" stroke-linejoin="round" stroke="#000000" stroke-opacity="1" d="M 84.7219,194.797L 76.757,199.162L 71.957,189.712L 67.157,199.162L 59.177,194.797L 64.757,183.802L 52.652,183.802L 52.652,175.162L 64.457,175.162L 59.087,163.882L 66.962,159.802L 71.957,169.837L 77.042,159.802L 85.007,164.077L 79.337,175.162L 91.052,175.162L 91.052,183.802L 79.157,183.802L 84.7219,194.797 Z "/>
		</g>
		<g>
			<path fill="#FFFFFF" fill-opacity="1" stroke-linejoin="round" stroke="#000000" stroke-opacity="1" d="M 152.282,192.042L 152.282,183.402L 199.997,183.402L 199.997,192.042L 152.282,192.042 Z M 152.282,172.842L 152.282,164.202L 199.997,164.202L 199.997,172.842L 152.282,172.842 Z "/>
		</g>
	</g>
	<g>
		<path fill="#32E01D" fill-opacity="1" stroke-width="2" stroke-linejoin="round" stroke="#000000" stroke-opacity="1" d="M 217.11,126.105C 226.076,126.105 232.772,128.454 237.197,133.155C 241.622,137.855 243.835,143.946 243.835,151.43C 243.835,156.88 242.476,161.767 239.76,166.092C 237.043,170.417 232.485,173.972 226.085,176.755L 165.61,203.204C 163.793,204.055 162.297,205.176 161.122,206.567C 159.947,207.959 159.36,209.563 159.36,211.38L 159.36,217.305L 241.11,217.305L 241.11,236.505L 140.01,236.505L 140.01,211.13C 140.01,209.413 140.222,207.434 140.647,205.192C 141.072,202.951 141.922,200.68 143.197,198.38C 144.472,196.079 146.285,193.805 148.635,191.555C 150.985,189.305 154.026,187.371 157.76,185.755L 218.56,159.28C 220.593,158.413 222.114,157.204 223.122,155.655C 224.13,154.105 224.635,152.579 224.635,151.079C 224.635,149.363 224.155,147.972 223.197,146.905C 222.239,145.838 220.376,145.305 217.61,145.305L 144.16,145.305L 144.16,126.105L 217.11,126.105 Z "/>
	</g>
</svg>
